X: 1
T: Arkansas Traveller, The
C:Trad
R: Reel
G: American Old-Timey
M: 4/4
L: 1/8
K: Dmaj
Z: ABC transcription by Verge Roller
r: 32
|: A2, | "D" DFED "G" B,2 B,2 | "A" A,2 A,2 "D" D4 | "A" E2 E2 "D" F2 F2 | "G" EFED "A" B,2 A,2 |
"D" DFED "G" B,2 B,2 | "A" A,2 A,2 "D" D4 | "D" dcdA "G" BdAG | "A" F2  E2 "D" D2 :|
|: fg | "D" agfa "A" gfeg | "D" fedf "A" edcA | "D" dcdf "A" edeg | "D" fedf "A" e2 fg |
"D" agfa "A" gfeg | "D" fedf "A" edcA | "D" dcdA "G" BdAG | "A" F2 E2 "D" D2 :|
